src/images/gamePlatforms/pc_icon.svg

<svg width="59" height="49" viewBox="0 0 59 49" fill="none" xmlns="http://www.w3.org/2000/svg">
<path fill-rule="evenodd" clip-rule="evenodd" d="M50.1423 21.7839C45.2506 21.7839 41.2852 25.7494 41.2852 30.6411V39.4982C41.2852 44.3899 45.2506 48.3554 50.1423 48.3554C55.034 48.3554 58.9995 44.3899 58.9995 39.4982V30.6411C58.9995 25.7494 55.034 21.7839 50.1423 21.7839ZM50.1423 26.2135C48.9194 26.2135 47.928 27.2049 47.928 28.4278V32.8712C47.928 34.0941 48.9194 35.0855 50.1423 35.0855C51.3652 35.0855 52.3566 34.0941 52.3566 32.8712V28.4278C52.3566 27.2049 51.3652 26.2135 50.1423 26.2135Z" fill="#EBEBF5"/>
<path d="M4.75156 0.719238C2.52861 0.719238 0.726562 2.52129 0.726562 4.74424V32.7442C0.726562 34.9672 2.52862 36.7692 4.75156 36.7692H37.4122V32.2192H5.27656V5.26924H42.7266V20.2863C44.0711 19.3209 45.6114 18.611 47.2766 18.2277V4.74424C47.2766 2.52129 45.4745 0.719238 43.2516 0.719238H4.75156Z" fill="#EBEBF5"/>
<path d="M47.2766 22.253C45.3937 22.897 43.7967 24.1575 42.7266 25.7938V32.2192H41.2872V36.7692H43.2516C45.4745 36.7692 47.2766 34.9672 47.2766 32.7442V22.253Z" fill="#EBEBF5"/>
<rect x="13.2441" y="41.1526" width="20.6566" height="4.55" fill="#EBEBF5"/>
</svg>

<svg width="59" height="49" fill="none" xmlns="http://www.w3.org/2000/svg"><path fill-rule="evenodd" clip-rule="evenodd" d="M50.142 21.784a8.857 8.857 0 0 0-8.857 8.857v8.857a8.857 8.857 0 1 0 17.715 0v-8.857a8.857 8.857 0 0 0-8.858-8.857zm0 4.43a2.214 2.214 0 0 0-2.214 2.214v4.443a2.214 2.214 0 0 0 4.429 0v-4.443a2.214 2.214 0 0 0-2.215-2.215z" fill="#EBEBF5"/><path d="M4.752.72A4.025 4.025 0 0 0 .727 4.743v28a4.025 4.025 0 0 0 4.025 4.025h32.66v-4.55H5.277V5.27h37.45v15.017a12.671 12.671 0 0 1 4.55-2.058V4.744A4.025 4.025 0 0 0 43.252.72h-38.5z" fill="#EBEBF5"/><path d="M47.277 22.253a8.881 8.881 0 0 0-4.55 3.54v6.426h-1.44v4.55h1.965a4.025 4.025 0 0 0 4.025-4.025V22.253zM13.244 41.153h20.657v4.55H13.244z" fill="#EBEBF5"/></svg>
